X: 24
T:Have Ye Any More On't x025
M:C|
Q:180
S:Henry Atkinson's original MS,Hartburn,N'umberland,1694.
O:England
A:Hartburn,Northumberland
H:1/8
Z:vmp.Chris Partington.Jan.2004
K:C
"cr"G3A G2E2|D2C2A4|G2(AB) c2(GE)|G4c4||!
c2"NB"e2e2(de)|(fe)(dc) d2G2|c2"NB"e2e2 (de)|\
(fe)(dc) (ef)(ge)|!
(fg)(ag) (ag)(fe)|(fe)(dc) d2(cd)|\
e2(de) g2(GE)|G4c4|]
